X:2989
T:Chips and Shavings. GS.007
M:4/4
L:1/8
Q:200
S:George Spencer m/s, Leeds,1831
R:Reel
O:England
A:Leeds
N:' George Spencer 1831' written on the stave at the end of the music..
H:1831
Z:vmp.Cherri Graebe
K:D major
" No time sig. in ms"
dBAF G2 (FE) | DFAF GE E2 | dBAF G2 (FE) | DFAF FD D2 :||:!
dfaf g2 fe | dfaf (g2e)e | dfaf g2 (fe) | dBAF FD D2:||


